X:1
T:Title
%%score { ( 1 3 ) | ( 2 4 ) }
L:1/8
Q:1/4=110
M:4/4
K:F
V:1 treble nm="Grand Piano"
V:3 treble 
V:2 bass 
V:4 bass 
V:1
 F2 F2 F2 F2 | E2 F2 G4 | G2 G2 G2 G2 | F2 G2 A4 | A2 A2 A2 A2 | %5
w: G.~F.~Root * * *|||||
 [B,DG]2 [CDA]2 [B,DB]2 [CDA][B,DG] | F2 F2 E2 G2 | F6 z2 | c6 z2 | [Gc]3 [Fc] [Ec]4 | c4 z4 | %11
w: ||||||
 [CAc]3 [Gc] c4 | f2 [df]2 [ce]2 [Bd]2 | [CGc]3 [CGB] [CFA]2 [DFB]2 | [CFA]2 F2 G3 F | F6 z2 |] %16
w: |||||
V:2
 [F,A,C]2 [F,A,C]2 [F,A,C]2 [F,A,C]2 | [C,G,C]2 [C,A,C]2 [C,B,C]4 | %2
 [C,B,C]2 [C,B,C]2 [C,B,C]2 [C,B,C]2 | [F,A,C]2 [F,B,F]2 [F,CF]4 | %4
 [F,CF]2 [F,CF]2 [F,CF]2 [F,CF]2 | B,,2 A,,2 G,,2 A,,B,, | [C,A,C]2 [C,A,C]2 [C,G,C]2 [C,B,C]2 | %7
 [F,A,C]6 z2 | z2 [F,A,]2 [C,G,]2 [F,A,F]2 | [C,B,]3 [C,A,] [C,G,]4 | %10
 z2 [C,B,]2 [C,A,]2 z[K:treble] c | F,3 [F,B,] [F,A,F]4 | z2 [B,,B,]2 [C,B,]2 B,2 | %13
 E,3 E, F,2 B,,2 | C,2 [C,A,C]2 [C,B,C]3 [F,A,C] | [F,A,C]6 z2 |] %16
V:3
 x8 | x8 | x8 | x8 | x8 | x8 | x8 | x8 | z2 F2 E2 cc | x8 | z2 G2 F2 .[Gc]2 | x8 | x8 | x8 | x8 | %15
 x8 |] %16
V:4
 x8 | x8 | x8 | x8 | x8 | x8 | x8 | x8 | x8 | x8 | z4 z2 [C,B,]2[K:treble] | x8 | x8 | x8 | x8 | %15
 x8 |] %16

